X:441
T:Mirlands Polka
C:James S C Johnstone, Orkney
S:Alan Jackson, Orkney
Z:Nigel Gatherer
M:2/4
L:1/16
K:D
AG | F2D2 A2D2 | f>ed>c d>AF>D | C2A2 E2A2 | c>BA>F G>EC>A  |
     D2A2 F2D2 | f>ed>c d>AF>D | C>DE>F G>BA>G | F2D2 D2   :|
AG | F>AD>A F>AD>d | B2G2 G2ed | c>eA>e c>eA>a | f2d2 d2 AG |
     F>AD>A F>AD>d | B2G2 B,2ED | C>Ec>B A>FG>E | F2D2 D2 :|]
<end>
<start>
